X:73
M:C
L:1/8
Q:"Andantino  "1/4=140
K:F
!p!F2|([F2D2] [G_E]A) [B3D3] A|\
([GDB,]>F[GEC]>A) [F2A,2](cA)|\
(F2 GA) ([BFD]d[cAF]A)|L([A2C2][G2B,2][F2A,2]) zF|
([F2D2] [G_E]A) [B3D3] A|([GDB,]>F[GEC]>A) [F2A,2](cA)|\
(F2 GA) ([BFD]d[cAF]A)|L([A2C2][G2B,2][F2A,2])||
[dB]>[dB][dB][cA] [c2A2] (cA)|\
(F2 GA) ([BFD]d[cAF]A)|L([A2C2][G2B,2][F2A,2]) zF|
([AF][GE][AF][BG]) [c2A2] [cA][cA]|\
[d2B2] ([dB]>[cA]) [c2A2](cA)|\
(F2 GA) ([BFD]d[cAF]A)|L([A2C2][G2B,2][F2A,2])||

